X:62
T:When Bucks a Hunting go. RHu.063
T:Cheerful Horn,The,aka. RHu.063
S:R.Hughes MS,1823,Whitchurch,Shrops.
A:Whitchurch, Shropshire
Z:Neil Brookes 2006
M:6/8
L:1/8
Q:3/8=100
R:Air
K:G
d|g2g gfe|d2c Bcd|e2a fdf|g3-g2::!
g/a/|b2b bgb|d’3b2g|a2a aga b3g2d|!
g2g gfe|d2c Bcd|e2afdf|g3-g2:|

